X: 081
T: General Garibaldi's Reel
C: Trad
B: RSCDS Graded 2 #8
R: reel
Z: 2010 John Chambers <jc:trillian.mit.edu>
M: C|
L: 1/8
K: D
A |\
"D"d2FA dcBA | "G"BcdB "D"AFDF | "G"G2BG "D"F2AF | "Em"GFED "A7"CECA, |
"D"D2FA dcBA | "G"BcdB "D"AFDF | "G"GABG "D"FA"G"dg | "A7"fdec "D"d2d |]
A |\
"D"d2fd adfa | "G"gfed "A7"cecA | "Bm"d2fd "D"adfa | "Em"gf"A7"ec "D"(3ddd dA |
"C"d2fd "(B7)"adfa | "Em"gfed "A"cecA | "G"BGGB "D"AF"G"Gg | "A7"fdec "D"d2d |]
